;FLAVOR:Marlin
;TIME:2585
;Filament used: 2.70811m
;Layer height: 0.24
;Generated with Cura_SteamEngine 3.6.0
M140 S70
M105
M190 S70
M104 S210
M105
M109 S210
M82 ;absolute extrusion mode
; Ender 3 Custom Start G-code
G28 ; Home all axes
G92 E0 ; Reset Extruder
G1 Z2.0 F3000 ; Move Z Axis up little to prevent scratching of Heat Bed
G92 E0
G1 F5100 E-6.5
;LAYER_COUNT:55
;LAYER:0
M107
M204 S5000
M205 X30 Y30
G0 F3600 X86.556 Y86.934 Z0.24
M204 S500
M205 X20 Y20
;TYPE:SKIRT
G1 F5100 E0.04158
G1 F1800 X87.022 Y86.478 E0.05589
G1 X87.541 Y86.082 E0.07022
G1 X88.105 Y85.752 E0.08456
G1 X88.704 Y85.494 E0.09888
G1 X89.331 Y85.311 E0.11322
G1 X89.975 Y85.206 E0.12754
G1 X90.509 Y85.179 E0.13928
G1 X144.491 Y85.18 E1.32427
G1 X145.143 Y85.22 E1.33861
G1 X145.784 Y85.339 E1.35292
G1 X146.407 Y85.536 E1.36727
G1 X147 Y85.808 E1.38159
G1 X147.556 Y86.149 E1.39591
G1 X148.066 Y86.557 E1.41024
G1 X148.522 Y87.023 E1.42456
G1 X148.918 Y87.542 E1.43889
G1 X149.248 Y88.106 E1.45323
G1 X149.506 Y88.705 E1.46755
G1 X149.689 Y89.332 E1.48189
G1 X149.794 Y89.976 E1.49621
G1 X149.821 Y90.51 E1.50795
G1 X149.821 Y144.491 E2.69292
G1 X149.781 Y145.142 E2.70724
G1 X149.662 Y145.784 E2.72157
G1 X149.465 Y146.406 E2.73589
G1 X149.194 Y147 E2.75023
G1 X148.852 Y147.556 E2.76456
G1 X148.444 Y148.066 E2.77889
G1 X147.978 Y148.522 E2.79321
G1 X147.459 Y148.918 E2.80754
G1 X146.895 Y149.248 E2.82188
G1 X146.296 Y149.506 E2.8362
G1 X145.669 Y149.689 E2.85053
G1 X145.025 Y149.794 E2.86486
G1 X144.491 Y149.821 E2.8766
G1 X90.509 Y149.821 E4.06159
G1 X89.858 Y149.781 E4.07591
G1 X89.216 Y149.662 E4.09024
G1 X88.594 Y149.465 E4.10456
G1 X88 Y149.194 E4.1189
G1 X87.444 Y148.852 E4.13323
G1 X86.934 Y148.444 E4.14756
G1 X86.478 Y147.978 E4.16188
G1 X86.082 Y147.459 E4.17621
G1 X85.752 Y146.895 E4.19055
G1 X85.494 Y146.296 E4.20487
G1 X85.311 Y145.669 E4.21921
G1 X85.206 Y145.025 E4.23353
G1 X85.179 Y144.491 E4.24527
G1 X85.179 Y90.509 E5.43026
G1 X85.219 Y89.858 E5.44458
G1 X85.338 Y89.216 E5.45891
G1 X85.535 Y88.594 E5.47323
G1 X85.806 Y88 E5.48757
G1 X86.148 Y87.444 E5.5019
G1 X86.556 Y86.934 E5.51623
M204 S5000
M205 X30 Y30
G0 F3600 X86.773 Y87.023
M204 S500
M205 X20 Y20
G1 F1800 X87.237 Y86.584 E5.53026
G1 X87.753 Y86.206 E5.5443
G1 X88.312 Y85.896 E5.55833
G1 X88.905 Y85.657 E5.57236
G1 X89.523 Y85.495 E5.58639
G1 X90.156 Y85.411 E5.6004
G1 X90.509 Y85.399 E5.60816
G1 X144.491 Y85.4 E6.79315
G1 X145.129 Y85.44 E6.80719
G1 X145.757 Y85.559 E6.82122
G1 X146.365 Y85.756 E6.83525
G1 X146.944 Y86.027 E6.84928
G1 X147.484 Y86.368 E6.8633
G1 X147.977 Y86.774 E6.87732
G1 X148.416 Y87.238 E6.89134
G1 X148.794 Y87.754 E6.90538
G1 X149.104 Y88.313 E6.91941
G1 X149.343 Y88.906 E6.93345
G1 X149.505 Y89.524 E6.94747
G1 X149.589 Y90.157 E6.96149
G1 X149.601 Y90.51 E6.96924
G1 X149.601 Y144.491 E8.15422
G1 X149.561 Y145.129 E8.16825
G1 X149.442 Y145.757 E8.18228
G1 X149.245 Y146.365 E8.19631
G1 X148.974 Y146.943 E8.21033
G1 X148.633 Y147.484 E8.22436
G1 X148.227 Y147.977 E8.23838
G1 X147.763 Y148.416 E8.25241
G1 X147.247 Y148.794 E8.26645
G1 X146.688 Y149.104 E8.28048
G1 X146.095 Y149.343 E8.29451
G1 X145.477 Y149.505 E8.30854
G1 X144.844 Y149.589 E8.32255
G1 X144.491 Y149.601 E8.33031
G1 X90.509 Y149.601 E9.5153
G1 X89.871 Y149.561 E9.52934
G1 X89.243 Y149.442 E9.54337
G1 X88.635 Y149.245 E9.5574
G1 X88.057 Y148.974 E9.57141
G1 X87.516 Y148.633 E9.58545
G1 X87.023 Y148.227 E9.59947
G1 X86.584 Y147.763 E9.61349
G1 X86.206 Y147.247 E9.62753
G1 X85.896 Y146.688 E9.64156
G1 X85.657 Y146.095 E9.6556
G1 X85.495 Y145.477 E9.66962
G1 X85.411 Y144.844 E9.68364
G1 X85.399 Y144.491 E9.69139
G1 X85.399 Y90.509 E10.87639
G1 X85.439 Y89.871 E10.89042
G1 X85.558 Y89.243 E10.90445
G1 X85.755 Y88.635 E10.91848
G1 X86.026 Y88.057 E10.9325
G1 X86.367 Y87.516 E10.94653
G1 X86.773 Y87.023 E10.96055
M204 S5000
M205 X30 Y30
G1 F5100 E4.46055
;MESH:Plate.stl
G0 F3600 X89.835 Y91.174
G0 X91.174 Y91.174
G0 X94.278 Y93.597
G0 X94.332 Y93.681
M204 S500
M205 X20 Y20
;TYPE:WALL-INNER
G1 F5100 E11.00213
G1 F1800 X94.085 Y93.866 E11.01568
G1 X93.866 Y94.085 E11.02928
G1 X93.681 Y94.332 E11.04282
G1 X93.534 Y94.602 E11.05632
G1 X93.426 Y94.891 E11.06987
G1 X93.36 Y95.193 E11.08344
G1 X93.338 Y95.5 E11.09695
G1 X93.36 Y95.807 E11.11046
G1 X93.426 Y96.109 E11.12404
G1 X93.534 Y96.398 E11.13758
G1 X93.681 Y96.668 E11.15108
G1 X93.866 Y96.915 E11.16463
G1 X94.085 Y97.134 E11.17822
G1 X94.332 Y97.319 E11.19177
G1 X94.602 Y97.466 E11.20527
G1 X94.891 Y97.574 E11.21881
G1 X95.193 Y97.64 E11.23239
G1 X95.5 Y97.662 E11.2459
G1 X95.807 Y97.64 E11.25941
G1 X96.109 Y97.574 E11.27298
G1 X96.398 Y97.466 E11.28653
G1 X96.668 Y97.319 E11.30003
G1 X96.915 Y97.134 E11.31357
G1 X97.134 Y96.915 E11.32717
G1 X97.319 Y96.668 E11.34072
G1 X97.466 Y96.398 E11.35422
G1 X97.574 Y96.109 E11.36776
G1 X97.64 Y95.807 E11.38133
G1 X97.662 Y95.5 E11.39485
G1 X97.64 Y95.193 E11.40836
G1 X97.574 Y94.891 E11.42193
G1 X97.466 Y94.602 E11.43548
G1 X97.319 Y94.332 E11.44897
G1 X97.134 Y94.085 E11.46252
G1 X96.915 Y93.866 E11.47612
G1 X96.668 Y93.681 E11.48967
G1 X96.398 Y93.534 E11.50316
G1 X96.109 Y93.426 E11.51671
G1 X95.807 Y93.36 E11.53028
G1 X95.5 Y93.338 E11.54379
G1 X95.193 Y93.36 E11.55731
G1 X94.891 Y93.426 E11.57088
G1 X94.602 Y93.534 E11.58442
G1 X94.332 Y93.681 E11.59792
M204 S5000
M205 X30 Y30
G0 F3600 X94.278 Y93.597
G0 X93.648 Y94.311
G0 X93.388 Y94.88
G0 X93.316 Y95.382
G0 X94.278 Y137.597
G0 X94.332 Y137.681
M204 S500
M205 X20 Y20
G1 F1800 X94.085 Y137.866 E11.61147
G1 X93.866 Y138.085 E11.62507
G1 X93.681 Y138.332 E11.63862
G1 X93.534 Y138.602 E11.65211
G1 X93.426 Y138.891 E11.66566
G1 X93.36 Y139.193 E11.67923
G1 X93.338 Y139.5 E11.69274
G1 X93.36 Y139.807 E11.70626
G1 X93.426 Y140.109 E11.71983
G1 X93.534 Y140.398 E11.73337
G1 X93.681 Y140.668 E11.74687
G1 X93.866 Y140.915 E11.76042
G1 X94.085 Y141.134 E11.77402
G1 X94.332 Y141.319 E11.78756
G1 X94.602 Y141.466 E11.80106
G1 X94.891 Y141.574 E11.81461
G1 X95.193 Y141.64 E11.82818
G1 X95.5 Y141.662 E11.84169
G1 X95.807 Y141.64 E11.8552
G1 X96.109 Y141.574 E11.86878
G1 X96.398 Y141.466 E11.88232
G1 X96.668 Y141.319 E11.89582
G1 X96.915 Y141.134 E11.90937
G1 X97.134 Y140.915 E11.92296
G1 X97.319 Y140.668 E11.93651
G1 X97.466 Y140.398 E11.95001
G1 X97.574 Y140.109 E11.96355
G1 X97.64 Y139.807 E11.97713
G1 X97.662 Y139.5 E11.99064
G1 X97.64 Y139.193 E12.00415
G1 X97.574 Y138.891 E12.01772
G1 X97.466 Y138.602 E12.03127
G1 X97.319 Y138.332 E12.04477
G1 X97.134 Y138.085 E12.05831
G1 X96.915 Y137.866 E12.07191
G1 X96.668 Y137.681 E12.08546
G1 X96.398 Y137.534 E12.09896
G1 X96.109 Y137.426 E12.1125
G1 X95.807 Y137.36 E12.12607
G1 X95.5 Y137.338 E12.13959
G1 X95.193 Y137.36 E12.1531
G1 X94.891 Y137.426 E12.16667
G1 X94.602 Y137.534 E12.18022
G1 X94.332 Y137.681 E12.19371
M204 S5000
M205 X30 Y30
G0 F3600 X94.278 Y137.597
G0 X95.188 Y137.321
G0 X138.278 Y137.597
G0 X138.332 Y137.681
M204 S500
M205 X20 Y20
G1 F1800 X138.085 Y137.866 E12.20726
G1 X137.866 Y138.085 E12.22086
G1 X137.681 Y138.332 E12.23441
G1 X137.534 Y138.602 E12.2479
G1 X137.426 Y138.891 E12.26145
G1 X137.36 Y139.193 E12.27502
G1 X137.338 Y139.5 E12.28853
G1 X137.36 Y139.807 E12.30205
G1 X137.426 Y140.109 E12.31562
G1 X137.534 Y140.398 E12.32916
G1 X137.681 Y140.668 E12.34266
G1 X137.866 Y140.915 E12.35621
G1 X138.085 Y141.134 E12.36981
G1 X138.332 Y141.319 E12.38336
G1 X138.602 Y141.466 E12.39685
G1 X138.891 Y141.574 E12.4104
G1 X139.193 Y141.64 E12.42397
G1 X139.5 Y141.662 E12.43748
G1 X139.807 Y141.64 E12.451
G1 X140.109 Y141.574 E12.46457
G1 X140.398 Y141.466 E12.47811
G1 X140.668 Y141.319 E12.49161
G1 X140.915 Y141.134 E12.50516
G1 X141.134 Y140.915 E12.51876
G1 X141.319 Y140.668 E12.5323
G1 X141.466 Y140.398 E12.5458
G1 X141.574 Y140.109 E12.55935
G1 X141.64 Y139.807 E12.57292
G1 X141.662 Y139.5 E12.58643
G1 X141.64 Y139.193 E12.59994
G1 X141.574 Y138.891 E12.61352
G1 X141.466 Y138.602 E12.62706
G1 X141.319 Y138.332 E12.64056
G1 X141.134 Y138.085 E12.65411
G1 X140.915 Y137.866 E12.6677
G1 X140.668 Y137.681 E12.68125
G1 X140.398 Y137.534 E12.69475
G1 X140.109 Y137.426 E12.70829
G1 X139.807 Y137.36 E12.72187
G1 X139.5 Y137.338 E12.73538
G1 X139.193 Y137.36 E12.74889
G1 X138.891 Y137.426 E12.76246
G1 X138.602 Y137.534 E12.77601
G1 X138.332 Y137.681 E12.78951
M204 S5000
M205 X30 Y30
G0 F3600 X138.278 Y137.597
G0 X139.188 Y137.321
G0 X139.812 Y137.321
G0 X140.414 Y137.498
G0 X140.941 Y137.836
G0 X141.352 Y138.311
G0 X143.77 Y143.77
G0 X143.84 Y143.84
M204 S500
M205 X20 Y20
G1 F1800 X91.16 Y143.84 E15.10233
G1 X91.16 Y91.16 E17.41516
G1 X143.84 Y91.16 E19.72799
G1 X143.84 Y143.84 E22.04082
M204 S5000
M205 X30 Y30
G0 F3600 X143.77 Y143.77
G0 X137.298 Y95.5
G0 X137.388 Y94.88
G0 X137.622 Y94.368
G0 X138.278 Y93.597
G0 X138.332 Y93.681
M204 S500
M205 X20 Y20
G1 F1800 X138.085 Y93.866 E22.05437
G1 X137.866 Y94.085 E22.06797
G1 X137.681 Y94.332 E22.08152
G1 X137.534 Y94.602 E22.09502
G1 X137.426 Y94.891 E22.10856
G1 X137.36 Y95.193 E22.12213
G1 X137.338 Y95.5 E22.13565
G1 X137.36 Y95.807 E22.14916
G1 X137.426 Y96.109 E22.16273
G1 X137.534 Y96.398 E22.17628
G1 X137.681 Y96.668 E22.18977
G1 X137.866 Y96.915 E22.20332
G1 X138.085 Y97.134 E22.21692
G1 X138.332 Y97.319 E22.23047
G1 X138.602 Y97.466 E22.24396
G1 X138.891 Y97.574 E22.25751
G1 X139.193 Y97.64 E22.27108
G1 X139.5 Y97.662 E22.28459
G1 X139.807 Y97.64 E22.29811
G1 X140.109 Y97.574 E22.31168
G1 X140.398 Y97.466 E22.32522
G1 X140.668 Y97.319 E22.33872
G1 X140.915 Y97.134 E22.35227
G1 X141.134 Y96.915 E22.36587
G1 X141.319 Y96.668 E22.37942
G1 X141.466 Y96.398 E22.39291
G1 X141.574 Y96.109 E22.40646
G1 X141.64 Y95.807 E22.42003
G1 X141.662 Y95.5 E22.43354
G1 X141.64 Y95.193 E22.44705
G1 X141.574 Y94.891 E22.46063
G1 X141.466 Y94.602 E22.47417
G1 X141.319 Y94.332 E22.48767
G1 X141.134 Y94.085 E22.50122
G1 X140.915 Y93.866 E22.51481
G1 X140.668 Y93.681 E22.52836
G1 X140.398 Y93.534 E22.54186
G1 X140.109 Y93.426 E22.55541
G1 X139.807 Y93.36 E22.56898
G1 X139.5 Y93.338 E22.58249
G1 X139.193 Y93.36 E22.596
G1 X138.891 Y93.426 E22.60957
G1 X138.602 Y93.534 E22.62312
G1 X138.332 Y93.681 E22.63662
M204 S5000
M205 X30 Y30
G0 F3600 X138.278 Y93.597
G0 X137.648 Y94.311
G0 X137.501 Y94.633
G0 X137.241 Y95.462
G0 X137.779 Y95.5
M204 S500
M205 X20 Y20
;TYPE:WALL-OUTER
G1 F1800 X137.797 Y95.744 E22.64736
G1 X137.849 Y95.985 E22.65818
G1 X137.935 Y96.215 E22.66896
G1 X138.052 Y96.43 E22.67971
G1 X138.199 Y96.626 E22.69047
G1 X138.374 Y96.801 E22.70133
G1 X138.57 Y96.948 E22.71209
G1 X138.785 Y97.065 E22.72283
G1 X139.015 Y97.151 E22.73361
G1 X139.256 Y97.203 E22.74444
G1 X139.5 Y97.221 E22.75518
G1 X139.744 Y97.203 E22.76592
G1 X139.985 Y97.151 E22.77675
G1 X140.215 Y97.065 E22.78753
G1 X140.43 Y96.948 E22.79827
G1 X140.626 Y96.801 E22.80903
G1 X140.801 Y96.626 E22.81989
G1 X140.948 Y96.43 E22.83065
G1 X141.065 Y96.215 E22.8414
G1 X141.151 Y95.985 E22.85218
G1 X141.203 Y95.744 E22.863
G1 X141.221 Y95.5 E22.87374
G1 X141.203 Y95.256 E22.88449
G1 X141.151 Y95.015 E22.89531
G1 X141.065 Y94.785 E22.90609
G1 X140.948 Y94.57 E22.91684
G1 X140.801 Y94.374 E22.92759
G1 X140.626 Y94.199 E22.93846
G1 X140.43 Y94.052 E22.94921
G1 X140.215 Y93.935 E22.95996
G1 X139.985 Y93.849 E22.97074
G1 X139.744 Y93.797 E22.98157
G1 X139.5 Y93.779 E22.99231
G1 X139.256 Y93.797 E23.00305
G1 X139.015 Y93.849 E23.01387
G1 X138.785 Y93.935 E23.02465
G1 X138.57 Y94.052 E23.0354
G1 X138.374 Y94.199 E23.04616
G1 X138.199 Y94.374 E23.05702
G1 X138.052 Y94.57 E23.06778
G1 X137.935 Y94.785 E23.07852
G1 X137.849 Y95.015 E23.08931
G1 X137.797 Y95.256 E23.10013
G1 X137.779 Y95.5 E23.11087
M204 S5000
M205 X30 Y30
G0 F3600 X137.793 Y95.7
G0 X137.254 Y95.739
G0 X137.241 Y139.462
G0 X137.779 Y139.5
M204 S500
M205 X20 Y20
G1 F1800 X137.797 Y139.744 E23.12161
G1 X137.849 Y139.985 E23.13244
G1 X137.935 Y140.215 E23.14322
G1 X138.052 Y140.43 E23.15396
G1 X138.199 Y140.626 E23.16472
G1 X138.374 Y140.801 E23.17559
G1 X138.57 Y140.948 E23.18634
G1 X138.785 Y141.065 E23.19709
G1 X139.015 Y141.151 E23.20787
G1 X139.256 Y141.203 E23.21869
G1 X139.5 Y141.221 E23.22943
G1 X139.744 Y141.203 E23.24018
G1 X139.985 Y141.151 E23.251
G1 X140.215 Y141.065 E23.26178
G1 X140.43 Y140.948 E23.27253
G1 X140.626 Y140.801 E23.28328
G1 X140.801 Y140.626 E23.29415
G1 X140.948 Y140.43 E23.30491
G1 X141.065 Y140.215 E23.31565
G1 X141.151 Y139.985 E23.32643
G1 X141.203 Y139.744 E23.33726
G1 X141.221 Y139.5 E23.348
G1 X141.203 Y139.256 E23.35874
G1 X141.151 Y139.015 E23.36956
G1 X141.065 Y138.785 E23.38034
G1 X140.948 Y138.57 E23.39109
G1 X140.801 Y138.374 E23.40185
G1 X140.626 Y138.199 E23.41271
G1 X140.43 Y138.052 E23.42347
G1 X140.215 Y137.935 E23.43422
G1 X139.985 Y137.849 E23.445
G1 X139.744 Y137.797 E23.45582
G1 X139.5 Y137.779 E23.46656
G1 X139.256 Y137.797 E23.4773
G1 X139.015 Y137.849 E23.48813
G1 X138.785 Y137.935 E23.49891
G1 X138.57 Y138.052 E23.50965
G1 X138.374 Y138.199 E23.52041
G1 X138.199 Y138.374 E23.53128
G1 X138.052 Y138.57 E23.54203
G1 X137.935 Y138.785 E23.55278
G1 X137.849 Y139.015 E23.56356
G1 X137.797 Y139.256 E23.57438
G1 X137.779 Y139.5 E23.58513
M204 S5000
M205 X30 Y30
G0 F3600 X137.793 Y139.7
G0 X137.254 Y139.739
G0 X137.648 Y140.689
G0 X138.059 Y141.164
G0 X138.485 Y141.437
G0 X143.77 Y143.77
G0 X144.28 Y144.28
M204 S500
M205 X20 Y20
G1 F1800 X90.72 Y144.28 E25.93659
G1 X90.72 Y90.72 E28.28806
G1 X144.28 Y90.72 E30.63952
G1 X144.28 Y144.28 E32.99099
M204 S5000
M205 X30 Y30
G0 F3600 X144.08 Y144.28
G0 X143.77 Y143.77
G0 X95.188 Y141.679
G0 X94.586 Y141.502
G0 X94.059 Y141.164
G0 X93.648 Y140.689
G0 X93.438 Y140.229
G0 X93.241 Y139.462
G0 X93.779 Y139.5
M204 S500
M205 X20 Y20
G1 F1800 X93.797 Y139.744 E33.00173
G1 X93.849 Y139.985 E33.01255
G1 X93.935 Y140.215 E33.02333
G1 X94.052 Y140.43 E33.03408
G1 X94.199 Y140.626 E33.04483
G1 X94.374 Y140.801 E33.0557
G1 X94.57 Y140.948 E33.06646
G1 X94.785 Y141.065 E33.0772
G1 X95.015 Y141.151 E33.08798
G1 X95.256 Y141.203 E33.09881
G1 X95.5 Y141.221 E33.10955
G1 X95.744 Y141.203 E33.12029
G1 X95.985 Y141.151 E33.13111
G1 X96.215 Y141.065 E33.1419
G1 X96.43 Y140.948 E33.15264
G1 X96.626 Y140.801 E33.1634
G1 X96.801 Y140.626 E33.17426
G1 X96.948 Y140.43 E33.18502
G1 X97.065 Y140.215 E33.19577
G1 X97.151 Y139.985 E33.20655
G1 X97.203 Y139.744 E33.21737
G1 X97.221 Y139.5 E33.22811
G1 X97.203 Y139.256 E33.23885
G1 X97.151 Y139.015 E33.24968
G1 X97.065 Y138.785 E33.26046
G1 X96.948 Y138.57 E33.27121
G1 X96.801 Y138.374 E33.28196
G1 X96.626 Y138.199 E33.29283
G1 X96.43 Y138.052 E33.30358
G1 X96.215 Y137.935 E33.31433
G1 X95.985 Y137.849 E33.32511
G1 X95.744 Y137.797 E33.33593
G1 X95.5 Y137.779 E33.34668
G1 X95.256 Y137.797 E33.35742
G1 X95.015 Y137.849 E33.36824
G1 X94.785 Y137.935 E33.37902
G1 X94.57 Y138.052 E33.38977
G1 X94.374 Y138.199 E33.40052
G1 X94.199 Y138.374 E33.41139
G1 X94.052 Y138.57 E33.42215
G1 X93.935 Y138.785 E33.43289
G1 X93.849 Y139.015 E33.44367
G1 X93.797 Y139.256 E33.4545
G1 X93.779 Y139.5 E33.46524
M204 S5000
M205 X30 Y30
G0 F3600 X93.793 Y139.7
G0 X93.254 Y139.739
G0 X93.241 Y95.462
G0 X93.779 Y95.5
M204 S500
M205 X20 Y20
G1 F1800 X93.797 Y95.744 E33.47598
G1 X93.849 Y95.985 E33.48681
G1 X93.935 Y96.215 E33.49759
G1 X94.052 Y96.43 E33.50833
G1 X94.199 Y96.626 E33.51909
G1 X94.374 Y96.801 E33.52995
G1 X94.57 Y96.948 E33.54071
G1 X94.785 Y97.065 E33.55146
G1 X95.015 Y97.151 E33.56224
G1 X95.256 Y97.203 E33.57306
G1 X95.5 Y97.221 E33.5838
G1 X95.744 Y97.203 E33.59454
G1 X95.985 Y97.151 E33.60537
G1 X96.215 Y97.065 E33.61615
G1 X96.43 Y96.948 E33.6269
G1 X96.626 Y96.801 E33.63765
G1 X96.801 Y96.626 E33.64852
G1 X96.948 Y96.43 E33.65927
G1 X97.065 Y96.215 E33.67002
G1 X97.151 Y95.985 E33.6808
G1 X97.203 Y95.744 E33.69163
G1 X97.221 Y95.5 E33.70237
G1 X97.203 Y95.256 E33.71311
G1 X97.151 Y95.015 E33.72393
G1 X97.065 Y94.785 E33.73471
G1 X96.948 Y94.57 E33.74546
G1 X96.801 Y94.374 E33.75622
G1 X96.626 Y94.199 E33.76708
G1 X96.43 Y94.052 E33.77784
G1 X96.215 Y93.935 E33.78858
G1 X95.985 Y93.849 E33.79936
G1 X95.744 Y93.797 E33.81019
G1 X95.5 Y93.779 E33.82093
G1 X95.256 Y93.797 E33.83167
G1 X95.015 Y93.849 E33.8425
G1 X94.785 Y93.935 E33.85328
