;FLAVOR:Marlin
;TIME:483
;Filament used: 0.44965m
;Layer height: 0.24
;Generated with Cura_SteamEngine 3.6.0
M140 S70
M105
M190 S70
M104 S210
M105
M109 S210
M82 ;absolute extrusion mode
; Ender 3 Custom Start G-code
G28 ; Home all axes
G92 E0 ; Reset Extruder
G1 Z2.0 F3000 ; Move Z Axis up little to prevent scratching of Heat Bed
G92 E0
G1 F5100 E-6.5
;LAYER_COUNT:34
;LAYER:0
M107
M204 S5000
M205 X30 Y30
G0 F3600 X94.024 Y105.977 Z0.24
M204 S500
M205 X20 Y20
;TYPE:SKIRT
G1 F5100 E0.04158
G1 F1800 X94.543 Y105.581 E0.05591
G1 X95.107 Y105.252 E0.07024
G1 X95.706 Y104.993 E0.08456
G1 X96.333 Y104.811 E0.0989
G1 X96.977 Y104.706 E0.11322
G1 X97.513 Y104.679 E0.125
G1 X105.579 Y104.683 E0.30206
G1 X106.152 Y104.714 E0.31466
G1 X108.041 Y104.919 E0.35637
G1 X113.415 Y105.303 E0.47464
G1 X118.768 Y105.382 E0.59216
G1 X124.122 Y105.157 E0.70979
G1 X128.899 Y104.71 E0.81511
G1 X129.391 Y104.687 E0.82593
G1 X137.486 Y104.68 E1.00362
G1 X138.138 Y104.719 E1.01796
G1 X138.78 Y104.838 E1.0323
G1 X139.402 Y105.034 E1.04661
G1 X139.996 Y105.305 E1.06094
G1 X140.552 Y105.647 E1.07527
G1 X141.063 Y106.054 E1.08961
G1 X141.519 Y106.52 E1.10393
G1 X141.916 Y107.038 E1.11825
G1 X142.246 Y107.601 E1.13258
G1 X142.505 Y108.201 E1.14692
G1 X142.688 Y108.827 E1.16124
G1 X142.794 Y109.471 E1.17557
G1 X142.821 Y110.011 E1.18744
G1 X142.82 Y113.995 E1.27489
G1 X142.78 Y114.647 E1.28923
G1 X142.66 Y115.288 E1.30355
G1 X142.463 Y115.911 E1.31789
G1 X142.192 Y116.504 E1.3322
G1 X141.85 Y117.06 E1.34653
G1 X141.442 Y117.57 E1.36087
G1 X140.976 Y118.026 E1.37518
G1 X140.571 Y118.343 E1.38647
G1 X134.973 Y122.309 E1.53707
G1 X129.933 Y126.306 E1.67828
G1 X129.363 Y126.7 E1.69349
G1 X127.533 Y127.798 E1.74033
G1 X126.93 Y128.11 E1.75524
G1 X125.152 Y128.889 E1.79785
G1 X124.669 Y129.073 E1.8092
G1 X123.571 Y129.432 E1.83455
G1 X123.064 Y129.571 E1.8461
G1 X121.117 Y130.001 E1.88987
G1 X120.5 Y130.099 E1.90358
G1 X118.774 Y130.272 E1.94166
G1 X118.147 Y130.298 E1.95543
G1 X116.076 Y130.261 E2.0009
G1 X115.376 Y130.202 E2.01632
G1 X113.269 Y129.884 E2.0631
G1 X112.769 Y129.784 E2.07429
G1 X111.875 Y129.56 E2.09452
G1 X111.558 Y129.47 E2.10176
G1 X110.54 Y129.147 E2.1252
G1 X110.172 Y129.015 E2.13378
G1 X109.04 Y128.562 E2.16055
G1 X108.55 Y128.337 E2.17239
G1 X106.712 Y127.376 E2.21791
G1 X106.105 Y127.005 E2.23353
G1 X104.317 Y125.741 E2.2816
G1 X104.053 Y125.542 E2.28886
G1 X99.927 Y122.223 E2.40509
G1 X97.836 Y120.679 E2.46215
G1 X94.48 Y118.362 E2.55168
G1 X93.967 Y117.959 E2.566
G1 X93.507 Y117.496 E2.58032
G1 X93.106 Y116.98 E2.59467
G1 X92.772 Y116.42 E2.60898
G1 X92.509 Y115.823 E2.6233
G1 X92.321 Y115.198 E2.63763
G1 X92.21 Y114.554 E2.65197
G1 X92.179 Y113.975 E2.6647
G1 X92.18 Y110.008 E2.75179
G1 X92.22 Y109.356 E2.76612
G1 X92.34 Y108.715 E2.78044
G1 X92.537 Y108.092 E2.79478
G1 X92.808 Y107.499 E2.8091
G1 X93.15 Y106.943 E2.82342
G1 X93.558 Y106.433 E2.83776
G1 X94.024 Y105.977 E2.85207
M204 S5000
M205 X30 Y30
G0 F3600 X94.239 Y106.083
M204 S500
M205 X20 Y20
G1 F1800 X94.755 Y105.705 E2.86612
G1 X95.314 Y105.395 E2.88015
G1 X95.907 Y105.157 E2.89417
G1 X96.525 Y104.995 E2.9082
G1 X97.159 Y104.911 E2.92224
G1 X97.513 Y104.899 E2.93001
G1 X105.579 Y104.903 E3.10707
G1 X106.128 Y104.933 E3.11914
G1 X108.001 Y105.137 E3.1605
G1 X113.413 Y105.523 E3.27961
G1 X118.756 Y105.602 E3.39691
G1 X124.153 Y105.375 E3.51549
G1 X128.92 Y104.929 E3.62059
G1 X129.392 Y104.907 E3.63096
G1 X137.487 Y104.9 E3.80866
G1 X138.124 Y104.939 E3.82267
G1 X138.752 Y105.058 E3.8367
G1 X139.361 Y105.254 E3.85074
G1 X139.94 Y105.525 E3.86478
G1 X140.48 Y105.866 E3.8788
G1 X140.974 Y106.271 E3.89282
G1 X141.414 Y106.735 E3.90686
G1 X141.792 Y107.25 E3.92088
G1 X142.103 Y107.809 E3.93492
G1 X142.341 Y108.401 E3.94893
G1 X142.504 Y109.019 E3.96296
G1 X142.589 Y109.653 E3.977
G1 X142.601 Y110.011 E3.98486
G1 X142.6 Y113.995 E4.07232
G1 X142.56 Y114.633 E4.08635
G1 X142.44 Y115.261 E4.10039
G1 X142.244 Y115.869 E4.11441
G1 X141.972 Y116.448 E4.12845
G1 X141.631 Y116.988 E4.14247
G1 X141.225 Y117.481 E4.15649
G1 X140.761 Y117.92 E4.17051
G1 X140.444 Y118.164 E4.17929
G1 X134.832 Y122.139 E4.33026
G1 X129.797 Y126.133 E4.47134
G1 X129.25 Y126.512 E4.48595
G1 X127.42 Y127.61 E4.53279
G1 X126.842 Y127.908 E4.54707
G1 X125.064 Y128.687 E4.58968
G1 X124.601 Y128.864 E4.60056
G1 X123.503 Y129.223 E4.62592
G1 X123.017 Y129.356 E4.63698
G1 X121.07 Y129.786 E4.68075
G1 X120.478 Y129.881 E4.69391
G1 X118.752 Y130.054 E4.73199
G1 X118.151 Y130.078 E4.74519
G1 X116.08 Y130.041 E4.79066
G1 X115.408 Y129.985 E4.80547
G1 X113.301 Y129.667 E4.85224
G1 X112.822 Y129.571 E4.86297
G1 X111.928 Y129.347 E4.8832
G1 X111.625 Y129.261 E4.89011
G1 X110.607 Y128.938 E4.91356
G1 X110.253 Y128.811 E4.92181
G1 X109.121 Y128.358 E4.94858
G1 X108.652 Y128.142 E4.95991
G1 X106.814 Y127.181 E5.00544
G1 X106.232 Y126.826 E5.02041
G1 X104.444 Y125.562 E5.06847
G1 X104.191 Y125.371 E5.07543
G1 X100.06 Y122.048 E5.19181
G1 X97.954 Y120.494 E5.24927
G1 X94.605 Y118.181 E5.33861
G1 X94.103 Y117.786 E5.35263
G1 X93.654 Y117.331 E5.36667
G1 X93.266 Y116.823 E5.3807
G1 X92.944 Y116.271 E5.39473
G1 X92.693 Y115.684 E5.40874
G1 X92.517 Y115.069 E5.42278
G1 X92.42 Y114.438 E5.4368
G1 X92.399 Y113.975 E5.44697
G1 X92.4 Y110.008 E5.53405
G1 X92.44 Y109.37 E5.54809
G1 X92.56 Y108.742 E5.56212
G1 X92.756 Y108.134 E5.57614
G1 X93.028 Y107.555 E5.59019
G1 X93.369 Y107.015 E5.60421
G1 X93.775 Y106.522 E5.61823
G1 X94.239 Y106.083 E5.63225
M204 S5000
M205 X30 Y30
G1 F5100 E-0.86775
;MESH:591572bb-5355-4c22-974a-d2c1bd1225b2.stl
G0 F3600 X128.004 Y113.26
G0 X129.252 Y113.757
G0 X132.173 Y113.259
G0 X132.23 Y113.34
M204 S500
M205 X20 Y20
;TYPE:WALL-INNER
G1 F5100 E5.67382
G1 F1800 X131.903 Y114.281 E5.71756
G1 X131.728 Y114.734 E5.73888
G1 X131.532 Y115.199 E5.76103
G1 X131.319 Y115.659 E5.78329
G1 X131.089 Y116.118 E5.80583
G1 X130.851 Y116.555 E5.82768
G1 X130.594 Y116.99 E5.84986
G1 X130.323 Y117.418 E5.8721
G1 X130.03 Y117.848 E5.89494
G1 X129.736 Y118.251 E5.91684
G1 X129.42 Y118.655 E5.93936
G1 X129.106 Y119.032 E5.9609
G1 X128.753 Y119.424 E5.98406
G1 X128.419 Y119.775 E6.00534
G1 X128.057 Y120.129 E6.02756
G1 X127.668 Y120.486 E6.05074
G1 X127.302 Y120.8 E6.07192
G1 X126.901 Y121.121 E6.09447
G1 X126.485 Y121.433 E6.1173
G1 X126.089 Y121.711 E6.13854
G1 X125.657 Y121.99 E6.16112
G1 X125.221 Y122.255 E6.18352
G1 X124.786 Y122.499 E6.20541
G1 X124.329 Y122.735 E6.228
G1 X123.877 Y122.951 E6.24999
G1 X123.408 Y123.157 E6.27248
G1 X122.942 Y123.343 E6.29451
G1 X122.457 Y123.517 E6.31713
G1 X121.989 Y123.669 E6.33873
G1 X121.502 Y123.809 E6.36098
G1 X121.011 Y123.933 E6.38321
G1 X120.512 Y124.041 E6.40563
G1 X120.014 Y124.132 E6.42785
G1 X119.519 Y124.206 E6.44983
G1 X119.019 Y124.264 E6.47193
G1 X118.507 Y124.306 E6.49448
G1 X118.008 Y124.331 E6.51642
G1 X117.5 Y124.34 E6.53872
G1 X116.992 Y124.331 E6.56103
G1 X116.492 Y124.307 E6.58301
G1 X115.98 Y124.265 E6.60556
G1 X115.481 Y124.206 E6.62762
G1 X114.986 Y124.132 E6.64959
G1 X114.488 Y124.041 E6.67182
G1 X113.989 Y123.933 E6.69424
G1 X113.498 Y123.809 E6.71647
G1 X113.011 Y123.669 E6.73872
G1 X112.543 Y123.517 E6.76032
G1 X112.047 Y123.338 E6.78347
G1 X111.592 Y123.157 E6.80497
G1 X111.123 Y122.951 E6.82746
G1 X110.671 Y122.735 E6.84945
G1 X110.214 Y122.499 E6.87203
G1 X109.779 Y122.255 E6.89393
G1 X109.343 Y121.99 E6.91633
G1 X108.914 Y121.711 E6.9388
G1 X108.503 Y121.424 E6.96081
G1 X108.099 Y121.121 E6.98298
G1 X107.698 Y120.8 E7.00553
G1 X107.332 Y120.486 E7.0267
G1 X106.943 Y120.129 E7.04988
G1 X106.581 Y119.775 E7.07211
G1 X106.247 Y119.424 E7.09338
G1 X105.895 Y119.031 E7.11654
G1 X105.58 Y118.655 E7.13808
G1 X105.264 Y118.251 E7.1606
G1 X104.969 Y117.848 E7.18252
G1 X104.677 Y117.418 E7.20534
G1 X104.406 Y116.99 E7.22758
G1 X104.149 Y116.555 E7.24977
G1 X103.911 Y116.118 E7.27161
G1 X103.682 Y115.659 E7.29413
G1 X103.468 Y115.199 E7.31641
G1 X103.277 Y114.746 E7.33799
G1 X103.093 Y114.268 E7.36048
G1 X102.77 Y113.34 E7.40362
G1 X98.16 Y113.34 E7.60601
G1 X98.16 Y110.66 E7.72367
G1 X104.951 Y110.66 E8.02182
G1 X104.998 Y110.997 E8.03676
G1 X105.081 Y111.466 E8.05767
G1 X105.183 Y111.932 E8.07861
G1 X105.302 Y112.393 E8.09952
G1 X105.439 Y112.85 E8.12046
G1 X105.592 Y113.302 E8.14141
G1 X105.763 Y113.747 E8.16234
G1 X105.949 Y114.186 E8.18328
G1 X106.154 Y114.618 E8.20427
G1 X106.374 Y115.04 E8.22516
G1 X106.609 Y115.454 E8.24606
G1 X106.859 Y115.859 E8.26696
G1 X107.125 Y116.255 E8.2879
G1 X107.405 Y116.642 E8.30887
G1 X107.702 Y117.017 E8.32988
G1 X108.01 Y117.38 E8.35078
G1 X108.332 Y117.731 E8.37169
G1 X108.667 Y118.07 E8.39261
G1 X109.015 Y118.396 E8.41355
G1 X109.375 Y118.708 E8.43446
G1 X109.746 Y119.008 E8.45541
G1 X110.13 Y119.292 E8.47638
G1 X110.521 Y119.561 E8.49721
G1 X110.923 Y119.818 E8.51816
G1 X111.336 Y120.058 E8.53913
G1 X111.757 Y120.282 E8.56007
G1 X112.187 Y120.491 E8.58106
G1 X112.623 Y120.682 E8.60196
G1 X113.066 Y120.857 E8.62287
G1 X113.515 Y121.017 E8.6438
G1 X113.972 Y121.158 E8.66479
G1 X114.431 Y121.281 E8.68566
G1 X114.897 Y121.39 E8.70667
G1 X115.365 Y121.479 E8.72758
G1 X115.836 Y121.55 E8.7485
G1 X116.309 Y121.604 E8.7694
G1 X116.786 Y121.64 E8.7904
G1 X117.263 Y121.658 E8.81136
G1 X117.739 Y121.658 E8.83225
G1 X118.215 Y121.64 E8.85317
G1 X118.692 Y121.604 E8.87417
G1 X119.165 Y121.55 E8.89507
G1 X119.636 Y121.479 E8.91598
G1 X120.104 Y121.39 E8.9369
G1 X120.569 Y121.282 E8.95785
G1 X121.028 Y121.159 E8.97872
G1 X121.486 Y121.018 E8.99976
G1 X121.935 Y120.857 E9.0207
G1 X122.377 Y120.682 E9.04157
G1 X122.813 Y120.491 E9.06247
G1 X123.243 Y120.282 E9.08346
G1 X123.664 Y120.058 E9.10439
G1 X124.076 Y119.818 E9.12533
G1 X124.478 Y119.563 E9.14623
G1 X124.871 Y119.293 E9.16716
G1 X125.255 Y119.009 E9.18813
G1 X125.625 Y118.708 E9.20907
G1 X125.985 Y118.396 E9.22999
G1 X126.333 Y118.07 E9.25092
G1 X126.668 Y117.731 E9.27184
G1 X126.99 Y117.38 E9.29276
G1 X127.298 Y117.017 E9.31366
G1 X127.595 Y116.643 E9.33463
G1 X127.875 Y116.255 E9.35563
G1 X128.141 Y115.859 E9.37658
G1 X128.391 Y115.454 E9.39747
G1 X128.626 Y115.04 E9.41837
G1 X128.846 Y114.617 E9.4393
G1 X129.05 Y114.186 E9.46024
G1 X129.236 Y113.747 E9.48117
G1 X129.407 Y113.302 E9.5021
G1 X129.56 Y112.85 E9.52305
G1 X129.697 Y112.393 E9.544
G1 X129.816 Y111.932 E9.5649
G1 X129.918 Y111.467 E9.5858
G1 X130.002 Y110.997 E9.60676
G1 X130.049 Y110.66 E9.6217
G1 X136.84 Y110.66 E9.91985
G1 X136.84 Y113.34 E10.03751
G1 X132.23 Y113.34 E10.2399
M204 S5000
M205 X30 Y30
G0 F3600 X132.173 Y113.259
G0 X124.891 Y119.327
G0 X123.258 Y120.318
G0 X121.498 Y121.055
G0 X120.108 Y121.43
G0 X118.898 Y121.619
G0 X117.267 Y121.697
G0 X115.62 Y121.554
G0 X113.962 Y121.196
G0 X112.174 Y120.529
G0 X110.496 Y119.592
G0 X108.992 Y118.428
G0 X107.67 Y117.04
G0 X106.577 Y115.477
G0 X105.978 Y114.326
G0 X102.457 Y113.24
G0 X102.457 Y113.78
M204 S500
M205 X20 Y20
;TYPE:WALL-OUTER
G1 F1800 X97.72 Y113.78 E10.44787
G1 X97.72 Y110.22 E10.60417
G1 X105.343 Y110.22 E10.93885
G1 X105.369 Y110.471 E10.94993
G1 X105.433 Y110.928 E10.97018
G1 X105.513 Y111.381 E10.99038
G1 X105.611 Y111.83 E11.01056
G1 X105.726 Y112.275 E11.03074
G1 X105.858 Y112.716 E11.05095
G1 X106.006 Y113.152 E11.07116
G1 X106.171 Y113.582 E11.09138
G1 X106.351 Y114.006 E11.1116
G1 X106.548 Y114.422 E11.13181
G1 X106.76 Y114.83 E11.152
G1 X106.988 Y115.23 E11.17221
G1 X107.229 Y115.621 E11.19238
G1 X107.486 Y116.003 E11.21259
G1 X107.756 Y116.376 E11.23281
G1 X108.042 Y116.738 E11.25306
G1 X108.34 Y117.089 E11.27328
G1 X108.651 Y117.428 E11.29347
G1 X108.974 Y117.755 E11.31365
G1 X109.31 Y118.069 E11.33384
G1 X109.658 Y118.371 E11.35407
G1 X110.015 Y118.66 E11.37424
G1 X110.385 Y118.934 E11.39445
G1 X110.764 Y119.194 E11.41463
G1 X111.152 Y119.442 E11.43485
G1 X111.55 Y119.674 E11.45507
G1 X111.956 Y119.89 E11.47526
G1 X112.371 Y120.091 E11.49551
G1 X112.792 Y120.276 E11.5157
G1 X113.22 Y120.445 E11.5359
G1 X113.654 Y120.599 E11.55612
G1 X114.094 Y120.735 E11.57634
G1 X114.538 Y120.854 E11.59652
G1 X114.988 Y120.959 E11.61681
G1 X115.439 Y121.045 E11.63696
G1 X115.894 Y121.114 E11.65717
G1 X116.351 Y121.166 E11.67736
G1 X116.811 Y121.201 E11.69761
G1 X117.271 Y121.218 E11.71782
G1 X117.731 Y121.218 E11.73802
G1 X118.19 Y121.201 E11.75818
G1 X118.65 Y121.166 E11.77844
G1 X119.107 Y121.114 E11.79863
G1 X119.562 Y121.045 E11.81884
G1 X120.013 Y120.959 E11.83899
G1 X120.462 Y120.855 E11.85923
G1 X120.906 Y120.736 E11.87941
G1 X121.347 Y120.6 E11.89967
G1 X121.78 Y120.445 E11.91986
G1 X122.208 Y120.276 E11.94006
G1 X122.629 Y120.091 E11.96025
G1 X123.044 Y119.89 E11.9805
G1 X123.45 Y119.674 E12.00069
G1 X123.847 Y119.442 E12.02088
G1 X124.236 Y119.196 E12.04108
G1 X124.615 Y118.935 E12.06129
G1 X124.985 Y118.661 E12.0815
G1 X125.342 Y118.371 E12.10169
G1 X125.69 Y118.069 E12.12192
G1 X126.026 Y117.755 E12.14211
G1 X126.349 Y117.428 E12.16229
G1 X126.66 Y117.089 E12.18249
G1 X126.958 Y116.738 E12.2027
G1 X127.244 Y116.377 E12.22292
G1 X127.514 Y116.003 E12.24318
G1 X127.771 Y115.621 E12.26339
G1 X128.012 Y115.23 E12.28355
G1 X128.24 Y114.83 E12.30377
G1 X128.452 Y114.422 E12.32395
G1 X128.648 Y114.006 E12.34414
G1 X128.828 Y113.582 E12.36437
G1 X128.993 Y113.152 E12.38459
G1 X129.141 Y112.716 E12.4048
G1 X129.273 Y112.275 E12.42501
G1 X129.388 Y111.83 E12.44519
G1 X129.486 Y111.381 E12.46537
G1 X129.567 Y110.928 E12.48557
G1 X129.63 Y110.475 E12.50565
G1 X129.656 Y110.22 E12.5169
G1 X137.28 Y110.22 E12.85162
G1 X137.28 Y113.78 E13.00792
G1 X132.543 Y113.78 E13.21589
G1 X132.318 Y114.426 E13.24592
G1 X132.133 Y114.905 E13.26847
G1 X131.931 Y115.384 E13.29129
G1 X131.712 Y115.856 E13.31413
G1 X131.475 Y116.328 E13.33732
G1 X131.23 Y116.778 E13.35982
G1 X130.966 Y117.226 E13.38265
G1 X130.687 Y117.666 E13.40552
G1 X130.394 Y118.096 E13.42836
G1 X130.083 Y118.522 E13.45152
G1 X129.767 Y118.926 E13.47404
G1 X129.433 Y119.325 E13.49688
G1 X129.081 Y119.718 E13.52005
G1 X128.727 Y120.089 E13.54256
G1 X128.355 Y120.453 E13.56541
G1 X127.966 Y120.81 E13.58859
G1 X127.577 Y121.143 E13.61107
G1 X127.165 Y121.473 E13.63425
G1 X126.749 Y121.785 E13.65708
G1 X126.328 Y122.08 E13.67965
G1 X125.886 Y122.366 E13.70276
G1 X125.447 Y122.633 E13.72532
G1 X124.994 Y122.887 E13.74812
G1 X124.531 Y123.126 E13.771
G1 X124.055 Y123.353 E13.79415
G1 X123.586 Y123.56 E13.81666
G1 X123.102 Y123.753 E13.83953
G1 X122.606 Y123.931 E13.86267
G1 X122.111 Y124.092 E13.88552
G1 X121.618 Y124.234 E13.90804
G1 X121.113 Y124.361 E13.93091
G1 X120.598 Y124.473 E13.95405
G1 X120.093 Y124.565 E13.97658
G1 X119.573 Y124.643 E13.99967
G1 X119.055 Y124.703 E14.02256
G1 X118.543 Y124.745 E14.04511
G1 X118.016 Y124.771 E14.06828
G1 X117.5 Y124.78 E14.09094
G1 X116.984 Y124.771 E14.11359
G1 X116.457 Y124.745 E14.13676
G1 X115.945 Y124.704 E14.15931
G1 X115.427 Y124.643 E14.18221
G1 X114.907 Y124.565 E14.20529
G1 X114.402 Y124.473 E14.22783
G1 X113.887 Y124.361 E14.25097
G1 X113.382 Y124.234 E14.27383
G1 X112.889 Y124.092 E14.29636
G1 X112.394 Y123.931 E14.31921
G1 X111.898 Y123.752 E14.34236
G1 X111.414 Y123.56 E14.36522
G1 X110.945 Y123.353 E14.38773
G1 X110.469 Y123.126 E14.41088
G1 X110.006 Y122.887 E14.43375
G1 X109.553 Y122.633 E14.45656
G1 X109.114 Y122.366 E14.47911
G1 X108.672 Y122.079 E14.50225
G1 X108.251 Y121.785 E14.5248
G1 X107.835 Y121.473 E14.54763
G1 X107.423 Y121.143 E14.5708
G1 X107.034 Y120.81 E14.59328
G1 X106.645 Y120.453 E14.61646
G1 X106.273 Y120.089 E14.63931
G1 X105.919 Y119.718 E14.66183
G1 X105.567 Y119.325 E14.68499
G1 X105.233 Y118.926 E14.70783
G1 X104.917 Y118.522 E14.73035
G1 X104.606 Y118.096 E14.75351
G1 X104.313 Y117.666 E14.77635
G1 X104.034 Y117.226 E14.79923
G1 X103.77 Y116.778 E14.82206
G1 X103.524 Y116.328 E14.84457
G1 X103.288 Y115.856 E14.86774
G1 X103.069 Y115.384 E14.89058
G1 X102.866 Y114.905 E14.91343
G1 X102.682 Y114.426 E14.93595
G1 X102.457 Y113.78 E14.96599
M204 S5000
M205 X30 Y30
G0 F3600 X102.257 Y113.78
G0 X102.257 Y113.24
G0 X103.075 Y112.91
M204 S500
M205 X20 Y20
;TYPE:SKIN
G1 F1800 X98.59 Y112.91 E15.16289
G1 X98.59 Y111.09 E15.2428
G1 X104.579 Y111.09 E15.50573
G1 X104.659 Y111.55 E15.52623
